!! 00000] TT[00
!! NN
!!!OTL: Zha chazi
!!!ARE: Asia, China Fujian, Yongan
!! Ethnic Group: Han
!! II, 612 (1)
!!!SCT: C0271
!!!YEM: Copyright 1995, estate of Helmut Schaffrath.
**kern
*ICvox
*Ivox
!! Mixed meters:  2/4; 3/4
*M2/4
*k[f#c#g#d#]
*E:
{8cc#
16cc#
16ee
8cc#
16cc#
16ee
=1
8cc#
8ee
4ff#
=2
*M3/4
4ff#
8ff#
8cc#
4ee}
=3
*M2/4
{8cc#
8cc#
8ee
16ee
16ff#
=4
8cc#
2ffxx#
=5
1ddxxx#
=6
4bb
8cc#
8r}
=7
{8cc#
8cc#
8ee
16cc#
16b
=8
2cc#}
==
!!!AGN: Shange, Žhnlich wie Xiaodiao
!! Die xxx stehen fuer Fuellwoerter. An diesen Stellen klopft man
!!    mit dem Messer auf Bambus.
!!!ONB: ESAC (Essen Associative Code) Database: CHINA_059
!!!AMT: irregular
!!!AIN: vox
!!!EED: Helmut Schaffrath
!!!EEV: 1.0
*-
